X: 132
T:Jackie Small's Jig
R:Jig
C:Traditional
S:Playing of De Danann
M:6/8
L:1/8
Q:150
K:G
D2z B2z|A2z GFE|D2z BcB|ABA GFE|
D2z B2z|A2z GAB|c2e dcB|cBA GFE:|
|:e2e dcB|cBA GBd|e2e dcB|cBA G2d|
e2e dcB|cBA GAB|c2e dcB|cBA GFE:|
